X: 18217
T: Humours Of Kilkenny, The
R: jig
M: 6/8
K: Adorian
d|:eAA BAB|GBd dBd|efg ded|BGB dBd|
eAA BAB|GBd dBd|efg ded|BAA A2d:|
|:e2a bag|egg ged|efg ded|BGB dBd|
e2a bag|egg ged|efg ded|BAA A2d:|

